icons/brush-line.svg

<svg xmlns="http://www.w3.org/2000/svg" width="24" height="24" fill="none"><g clip-path="url(#a)"><g><path fill="#121212" d="M15.456 9.67797L15.314 9.53597C14.6448 8.89069 13.8223 8.42644 12.924 8.18697C10.017 7.40897 7.225 9.05597 6.432 12.017C6.389 12.177 6.366 12.357 6.328 12.808C6.174 14.678 5.734 16.073 4.528 17.488C6.788 18.376 9.466 19.002 11.502 19.002C12.7123 19.0005 13.8883 18.6002 14.8482 17.863C15.8081 17.1258 16.4983 16.0929 16.812 14.924C17.0583 14.0069 17.0629 13.0417 16.8253 12.1223C16.5876 11.2029 16.1159 10.3608 15.456 9.67797ZM13.29 6.21597L18.229 2.37497C18.4213 2.22559 18.6615 2.1515 18.9045 2.1666C19.1475 2.18169 19.3767 2.28494 19.549 2.45697L22.544 5.45097C22.7163 5.62335 22.8197 5.85271 22.8348 6.09596C22.8499 6.33922 22.7757 6.57961 22.626 6.77197L18.786 11.71C19.0568 12.8144 19.073 13.9659 18.8335 15.0775C18.5941 16.1891 18.1052 17.2317 17.4037 18.1267C16.7022 19.0217 15.8066 19.7455 14.7843 20.2436C13.7621 20.7417 12.6401 21.001 11.503 21.002C8 21.002 3.5 19.5 1 18C4.98 15 4.047 13.19 4.5 11.5C5.558 7.54997 9.342 5.24297 13.289 6.21597H13.29ZM16.703 8.09497C16.768 8.15797 16.833 8.22297 16.896 8.28897L18.031 9.42297L20.506 6.24097L18.76 4.49497L15.578 6.96997L16.703 8.09497Z"/></g></g><defs><clipPath id="a"><rect width="24" height="24" fill="white"/></clipPath></defs></svg>

<svg width="24" height="24" fill="none" xmlns="http://www.w3.org/2000/svg"><g clip-path="url(#a)"><path d="m15.456 9.678-.142-.142a5.475 5.475 0 0 0-2.39-1.349c-2.907-.778-5.699.869-6.492 3.83-.043.16-.066.34-.104.791-.154 1.87-.594 3.265-1.8 4.68 2.26.888 4.938 1.514 6.974 1.514a5.505 5.505 0 0 0 5.323-6.88 5.497 5.497 0 0 0-1.369-2.444ZM13.29 6.216l4.939-3.841a1 1 0 0 1 1.32.082l2.995 2.994a1 1 0 0 1 .082 1.321l-3.84 4.938a7.504 7.504 0 0 1-7.283 9.292C8 21.002 3.5 19.5 1 18c3.98-3 3.047-4.81 3.5-6.5 1.058-3.95 4.842-6.257 8.789-5.284h.001Zm3.413 1.879c.065.063.13.128.193.194l1.135 1.134 2.475-3.182-1.746-1.746-3.182 2.475 1.125 1.125Z" /></g><defs><clipPath id="a"><path fill="#fff" d="M0 0h24v24H0z"/></clipPath></defs></svg>
